!!!OTL: "Polterabend" SCHENK EIN EIN VOLLES GLAS
!!!ARE: Europa, Mitteleuropa, Deutschland, Westfalen
!!!SCT: Z1331
!!!YEM: Copyright 1995, estate of Helmut Schaffrath.
**kern
*ICvox
*Ivox
*M3/4
*k[]
*C:
{8G
8G
16A
16B
=1
4c
4d
8A
8B
=2
4c
8r}
{8G
8G
16A
16B
=3
4c
4d
8A
8B
=4
4c
8r}
{16c
16d
8e
8c
=5
8.B
16c
8d
8d
16e
16d
16c
16B
=6
8.A
16B
8c
8d
8d
8d
=7
4G
8r}
{16c
16d
8e
8c
=8
8.B
16c
8d
8d
16e
16d
16c
16B
=9
8.A
16B
8c
8c
8d
8B
=10
4c
8r}
==
!!!AGN: Zech -, Schalks - Lied
!!!ONB: ESAC (Essen Associative Code) Database: ZUCCAL
!!!AMT: simple triple
!!!AIN: vox
!!!EED: Helmut Schaffrath
!!!EEV: 1.0
*-
